X:233
T:Pollonesse ur Götiska förbundets samlingar
T:(SmM I:233)
R:Polska
O:Småland
B:Småländsk Musiktradition
N:Ca 1850
M:3/4
L:1/8
K:F
f2 c/d/c/B/ AG|Fa g/f/e/g/ f2|ag gf ff|e>d c/d/e/f/ g2|ba bg gf|eg/e/ f2 F2:|
|:AA/B/ c2 cd/_e/|dc BA B2|G=B dg ba|g>f eg/e/ c2|(3Acf fc cA|(3Bdf fd dB|
(3Acf fc cA|(3Bdf fd dB|c>e fa/f/ g/f/e/d/|c>e fa/f/ g2|af bg af|e/f/g/a/ (g2 f2):|

